public/cloud-icons/azure/compute/vm-application-definition.svg

<?xml version="1.0" encoding="UTF-8" standalone="no"?>
<!-- Generated by Microsoft Visio, SVG Export VM Application Definition.svg Page-1 -->

<svg
   xmlns:dc="http://purl.org/dc/elements/1.1/"
   xmlns:cc="http://creativecommons.org/ns#"
   xmlns:rdf="http://www.w3.org/1999/02/22-rdf-syntax-ns#"
   xmlns:svg="http://www.w3.org/2000/svg"
   xmlns="http://www.w3.org/2000/svg"
   xmlns:sodipodi="http://sodipodi.sourceforge.net/DTD/sodipodi-0.dtd"
   xmlns:inkscape="http://www.inkscape.org/namespaces/inkscape"
   width="56.689999"
   height="51.0256"
   viewBox="0 0 56.689998 51.0256"
   xml:space="preserve"
   class="st6"
   version="1.1"
   id="svg50"
   sodipodi:docname="VM Application Definition.svg"
   style="font-size:12px;overflow:visible;color-interpolation-filters:sRGB;fill:none;fill-rule:evenodd;stroke-linecap:square;stroke-miterlimit:3"
   inkscape:version="0.92.5 (2060ec1f9f, 2020-04-08)"><metadata
   id="metadata54"><rdf:RDF><cc:Work
       rdf:about=""><dc:format>image/svg+xml</dc:format><dc:type
         rdf:resource="http://purl.org/dc/dcmitype/StillImage" /></cc:Work></rdf:RDF></metadata><sodipodi:namedview
   pagecolor="#ffffff"
   bordercolor="#666666"
   borderopacity="1"
   objecttolerance="10"
   gridtolerance="10"
   guidetolerance="10"
   inkscape:pageopacity="0"
   inkscape:pageshadow="2"
   inkscape:window-width="640"
   inkscape:window-height="480"
   id="namedview52"
   showgrid="false"
   inkscape:zoom="1.9825435"
   inkscape:cx="28.3465"
   inkscape:cy="25.504799"
   inkscape:window-x="0"
   inkscape:window-y="0"
   inkscape:window-maximized="0"
   inkscape:current-layer="svg50" />
	<style
   type="text/css"
   id="style2">
	<![CDATA[
		.st1 {fill:url(#grad0-6);stroke:none;stroke-linecap:butt;stroke-width:34}
		.st2 {fill:url(#grad0-10);stroke:none;stroke-linecap:butt;stroke-width:34}
		.st3 {fill:#9cebff;stroke:none;stroke-linecap:butt;stroke-width:34}
		.st4 {fill:#773adc;stroke:none;stroke-linecap:butt;stroke-width:34}
		.st5 {fill:#ffffff;stroke:none;stroke-linecap:butt;stroke-width:34}
		.st6 {fill:none;fill-rule:evenodd;font-size:12px;overflow:visible;stroke-linecap:square;stroke-miterlimit:3}
	]]>
	</style>

	<defs
   id="Patterns_And_Gradients">
		<linearGradient
   id="grad0-6"
   x1="0"
   y1="102.02082"
   x2="45.687261"
   y2="102.02082"
   gradientTransform="scale(1.2408273,0.80591393)"
   gradientUnits="userSpaceOnUse">
			<stop
   offset="0"
   stop-color="#0078d4"
   stop-opacity="1"
   id="stop4" />
			<stop
   offset="0.82"
   stop-color="#5ea0ef"
   stop-opacity="1"
   id="stop6" />
		</linearGradient>
		<linearGradient
   id="grad0-10"
   x1="-6.9275901e-05"
   y1="148.06957"
   x2="20.071176"
   y2="148.06957"
   gradientTransform="scale(1.4124733,0.70797799)"
   gradientUnits="userSpaceOnUse">
			<stop
   offset="0"
   stop-color="#1490df"
   stop-opacity="1"
   id="stop9" />
			<stop
   offset="0.98"
   stop-color="#1f56a3"
   stop-opacity="1"
   id="stop11" />
		</linearGradient>
	</defs>
	<g
   id="g48"
   transform="translate(-34,-33.9987)">
		<title
   id="title15">Page-1</title>
		<g
   id="group11495-1"
   transform="translate(34,-34.0157)">
			<title
   id="title17">VM Application Definition.11495</title>
			<g
   id="group11496-2">
				<title
   id="title19">Sheet.11496</title>
				<g
   id="shape11497-3"
   transform="translate(0,-14.2056)">
					<title
   id="title21">Sheet.11497</title>
					<path
   d="m 0,117.2 a 1.88981,1.84094 -180 0 0 1.89,1.84 H 54.8 a 1.88981,1.84094 -180 0 0 1.89,-1.84 V 84.06 A 1.88981,1.84094 -180 0 0 54.8,82.22 H 1.89 A 1.88981,1.84094 -180 0 0 0,84.06 Z"
   class="st1"
   id="path23"
   inkscape:connector-curvature="0"
   style="fill:url(#grad0-6);stroke:none;stroke-width:34;stroke-linecap:butt" />
				</g>
				<g
   id="shape11498-7"
   transform="translate(14.2047)">
					<title
   id="title26">Sheet.11498</title>
					<path
   d="m 25.51,115.97 c -5.6,-0.86 -5.82,-4.79 -5.79,-11.14 H 8.47 c 0,6.35 0,10.28 -5.7,11.14 A 3.14961,3.06817 -180 0 0 0,119.04 h 28.35 a 3.34173,3.25533 -180 0 0 -2.84,-3.07 z"
   class="st2"
   id="path28"
   inkscape:connector-curvature="0"
   style="fill:url(#grad0-10);stroke:none;stroke-width:34;stroke-linecap:butt" />
				</g>
				<g
   id="shape11499-11"
   transform="translate(23.0047,-27.0674)">
					<title
   id="title31">Sheet.11499</title>
					<path
   d="m 0,118.7 a 0.346465,0.337506 -180 0 0 0.346457,0.3375 L 8.45,119.04 a 0.346465,0.337506 -180 0 0 0.346457,-0.3375 L 8.8,110.81 A 0.346465,0.337506 -180 0 0 8.453543,110.4725 L 0.35,110.47 a 0.346465,0.337506 -180 0 0 -0.346457,0.3375 z"
   class="st3"
   id="path33"
   inkscape:connector-curvature="0"
   style="fill:#9cebff;stroke:none;stroke-width:34;stroke-linecap:butt" />
				</g>
				<g
   id="shape11500-13"
   transform="translate(28.7118,-32.4858)">
					<title
   id="title36">Sheet.11500</title>
					<path
   d="M 8.66,109.84 H 0.34 a 0.343307,0.33443 -180 0 0 -0.343307,0.33136 L 0,111.65 a 0.343307,0.33443 -180 0 0 0.343307,0.33443 L 6.46,111.98 a 0.686614,0.66886 0 0 1 0.689764,0.66886 L 7.15,118.71 a 0.340157,0.331362 -180 0 0 0.340157,0.33136 L 9,119.04 a 0.340157,0.331362 -180 0 0 0.343307,-0.33136 L 9.34,110.52 a 0.689764,0.671929 -180 0 0 -0.689764,-0.67193 z"
   class="st4"
   id="path38"
   inkscape:connector-curvature="0"
   style="fill:#773adc;stroke:none;stroke-width:34;stroke-linecap:butt" />
				</g>
				<g
   id="shape11501-15"
   transform="translate(18.6992,-23.18)">
					<title
   id="title41">Sheet.11501</title>
					<path
   d="m 15.75,111.14 v 5.33 a 0.629921,0.613633 0 0 1 -0.629921,0.61363 L 2.63,117.09 A 0.629921,0.613633 0 0 1 2.000079,116.47637 L 2,104.99 a 0.629921,0.613633 0 0 1 0.629921,-0.61363 L 8.89,104.37 a 0.343307,0.33443 -180 0 0 0.340157,-0.33443 L 9.23,102.76 A 0.343307,0.33443 -180 0 0 8.889843,102.42557 L 0.63,102.43 A 0.629921,0.613633 -180 0 0 7.9e-5,103.04363 L 0,118.43 a 0.629921,0.613633 -180 0 0 0.629921,0.61363 L 17.12,119.04 a 0.629921,0.613633 -180 0 0 0.629921,-0.61363 L 17.75,111.14 a 0.343307,0.33443 -180 0 0 -0.343307,-0.33443 L 16.09,110.81 a 0.340157,0.331362 -180 0 0 -0.343307,0.33136 z"
   class="st5"
   id="path43"
   inkscape:connector-curvature="0"
   style="fill:#ffffff;stroke:none;stroke-width:34;stroke-linecap:butt" />
				</g>
			</g>
		</g>
	</g>
</svg>

<svg xmlns="http://www.w3.org/2000/svg" xml:space="preserve" width="56.69" height="51.026" style="font-size:12px;overflow:visible;color-interpolation-filters:sRGB;fill-rule:evenodd;stroke-linecap:square;stroke-miterlimit:3" viewBox="0 0 56.69 51.026"><defs><linearGradient id="a" x1="0" x2="45.687" y1="102.021" y2="102.021" gradientTransform="scale(1.24083 .80591)" gradientUnits="userSpaceOnUse"><stop offset="0" stop-color="#0078d4"/><stop offset=".82" stop-color="#5ea0ef"/></linearGradient><linearGradient id="b" x1="0" x2="20.071" y1="148.07" y2="148.07" gradientTransform="scale(1.41247 .70798)" gradientUnits="userSpaceOnUse"><stop offset="0" stop-color="#1490df"/><stop offset=".98" stop-color="#1f56a3"/></linearGradient></defs><g transform="translate(-34 -33.999)"><title>Page-1</title><g transform="translate(34 -34.016)"><title>VM Application Definition.11495</title><title>Sheet.11496</title><g transform="translate(0 -14.206)"><title>Sheet.11497</title><path d="M0 117.2a1.89 1.84-180 0 0 1.89 1.84H54.8a1.89 1.84-180 0 0 1.89-1.84V84.06a1.89 1.84-180 0 0-1.89-1.84H1.89A1.89 1.84-180 0 0 0 84.06Z" style="fill:url(#a);stroke:none;stroke-width:34;stroke-linecap:butt"/></g><g transform="translate(14.205)"><title>Sheet.11498</title><path d="M25.51 115.97c-5.6-.86-5.82-4.79-5.79-11.14H8.47c0 6.35 0 10.28-5.7 11.14A3.15 3.068-180 0 0 0 119.04h28.35a3.342 3.255-180 0 0-2.84-3.07" style="fill:url(#b);stroke:none;stroke-width:34;stroke-linecap:butt"/></g><g transform="translate(23.005 -27.067)"><title>Sheet.11499</title><path d="M0 118.7a.346.338-180 0 0 .346.338l8.104.002a.346.338-180 0 0 .346-.337l.004-7.893a.346.338-180 0 0-.346-.338L.35 110.47a.346.338-180 0 0-.346.338z" style="fill:#9cebff;stroke:none;stroke-width:34;stroke-linecap:butt"/></g><g transform="translate(28.712 -32.486)"><title>Sheet.11500</title><path d="M8.66 109.84H.34a.343.334-180 0 0-.343.331L0 111.65a.343.334-180 0 0 .343.334l6.117-.004a.687.669 0 0 1 .69.669v6.061a.34.331-180 0 0 .34.331L9 119.04a.34.331-180 0 0 .343-.331l-.003-8.189a.69.672-180 0 0-.69-.672z" style="fill:#773adc;stroke:none;stroke-width:34;stroke-linecap:butt"/></g><g transform="translate(18.7 -23.18)"><title>Sheet.11501</title><path d="M15.75 111.14v5.33a.63.614 0 0 1-.63.614l-12.49.006a.63.614 0 0 1-.63-.614V104.99a.63.614 0 0 1 .63-.614l6.26-.006a.343.334-180 0 0 .34-.334v-1.276a.343.334-180 0 0-.34-.334l-8.26.004a.63.614-180 0 0-.63.614v15.386a.63.614-180 0 0 .63.614l16.49-.004a.63.614-180 0 0 .63-.614v-7.286a.343.334-180 0 0-.343-.334l-1.317.004a.34.331-180 0 0-.343.331z" style="fill:#fff;stroke:none;stroke-width:34;stroke-linecap:butt"/></g></g></g></svg>
